X:1
T:Bourr\'ee \`a Malochet
C:Trad.
R:bourr\'ee
O:France
Z:abc transcription Simon Wascher
N:please mail errors to: simon.wascher@chello.at
M:2/4
L:1/8
K:D
|:\
F2 G2 | A3d | c3/d/ ec | d3/e/ fd |\
F2 G2 | A3d | c3/d/ ec | d4 ::\
f3/e/ df | e3/d/ ce |
d3/c/ BG | A4 |\
G3/A/ BG |[1 F2 DF | E3/F/ GE | F4 :|[2 F2 Dd | c3/d/ ec | d4 |]
